austria/municipalities/40719.svg

<?xml version="1.0" encoding="UTF-8"?>
<!DOCTYPE svg PUBLIC "-//W3C//DTD SVG 1.1//EN" "http://www.w3.org/Graphics/SVG/1.1/DTD/svg11.dtd">
<svg xmlns="http://www.w3.org/2000/svg" version="1.1" width="166px" height="207px" style="shape-rendering:geometricPrecision; text-rendering:geometricPrecision; image-rendering:optimizeQuality; fill-rule:evenodd; clip-rule:evenodd" xmlns:xlink="http://www.w3.org/1999/xlink">
<g><path style="opacity:1" fill="#000000" d="M -0.5,-0.5 C 54.8333,-0.5 110.167,-0.5 165.5,-0.5C 165.5,43.5 165.5,87.5 165.5,131.5C 158.067,171.269 134.733,196.269 95.5,206.5C 86.8333,206.5 78.1667,206.5 69.5,206.5C 29.8711,196.203 6.53772,170.87 -0.5,130.5C -0.5,86.8333 -0.5,43.1667 -0.5,-0.5 Z"/></g>
<g><path style="opacity:1" fill="#cb0000" d="M 3.5,3.5 C 29.5,3.5 55.5,3.5 81.5,3.5C 81.5,12.5 81.5,21.5 81.5,30.5C 64.5,30.5 47.5,30.5 30.5,30.5C 30.3334,60.8352 30.5,91.1685 31,121.5C 32.4394,140.222 40.9394,154.722 56.5,165C 64.3425,169.21 72.6759,171.377 81.5,171.5C 81.5,181.833 81.5,192.167 81.5,202.5C 46.92,201.108 22.7533,184.441 9,152.5C 6.72276,146.668 5.0561,140.668 4,134.5C 3.50001,90.8346 3.33334,47.1679 3.5,3.5 Z"/></g>
<g><path style="opacity:1" fill="#fe9900" d="M 83.5,3.5 C 109.5,3.5 135.5,3.5 161.5,3.5C 161.667,47.5013 161.5,91.5013 161,135.5C 153.188,170.314 132.021,192.481 97.5,202C 92.8452,202.499 88.1785,202.666 83.5,202.5C 83.5,192.167 83.5,181.833 83.5,171.5C 112.342,168.827 129.175,153.161 134,124.5C 134.5,93.1684 134.667,61.8351 134.5,30.5C 117.5,30.5 100.5,30.5 83.5,30.5C 83.5,21.5 83.5,12.5 83.5,3.5 Z"/></g>
<g><path style="opacity:1" fill="#fefffe" d="M 32.5,32.5 C 48.8333,32.5 65.1667,32.5 81.5,32.5C 81.5,78.1667 81.5,123.833 81.5,169.5C 58.1714,168.349 42.6714,156.683 35,134.5C 34.3333,131.167 33.6667,127.833 33,124.5C 32.5,93.8351 32.3334,63.1685 32.5,32.5 Z"/></g>
<g><path style="opacity:1" fill="#000000" d="M 39.5,38.5 C 49.7256,44.2152 57.2256,52.5485 62,63.5C 66.265,74.8191 69.265,86.4858 71,98.5C 71.4999,116.164 71.6666,133.83 71.5,151.5C 67.8333,151.5 64.1667,151.5 60.5,151.5C 60.5,144.167 60.5,136.833 60.5,129.5C 56.1539,129.666 51.8206,129.499 47.5,129C 46.09,128.632 45.09,127.799 44.5,126.5C 46.0221,123.36 46.8554,120.027 47,116.5C 49.2905,97.4363 48.9571,78.4363 46,59.5C 44.3243,52.3088 42.1576,45.3088 39.5,38.5 Z"/></g>
<g><path style="opacity:1" fill="#fefffe" d="M 123.5,38.5 C 124.376,38.3691 125.043,38.7025 125.5,39.5C 119.194,55.6884 116.194,72.5217 116.5,90C 116.654,98.1879 117.154,106.355 118,114.5C 118.184,118.65 119.018,122.65 120.5,126.5C 119.91,127.799 118.91,128.632 117.5,129C 112.845,129.499 108.179,129.666 103.5,129.5C 103.5,136.833 103.5,144.167 103.5,151.5C 100.223,151.784 97.0567,151.451 94,150.5C 93.3333,134.5 93.3333,118.5 94,102.5C 95.5056,85.9923 99.8389,70.3256 107,55.5C 111.723,48.9452 117.223,43.2786 123.5,38.5 Z"/></g>
<g><path style="opacity:1" fill="#fefffe" d="M -0.5,130.5 C 6.53772,170.87 29.8711,196.203 69.5,206.5C 46.1667,206.5 22.8333,206.5 -0.5,206.5C -0.5,181.167 -0.5,155.833 -0.5,130.5 Z"/></g>
<g><path style="opacity:1" fill="#fefffe" d="M 165.5,131.5 C 165.5,156.5 165.5,181.5 165.5,206.5C 142.167,206.5 118.833,206.5 95.5,206.5C 134.733,196.269 158.067,171.269 165.5,131.5 Z"/></g>
</svg>

<svg xmlns="http://www.w3.org/2000/svg" width="166" height="207" style="shape-rendering:geometricPrecision;text-rendering:geometricPrecision;image-rendering:optimizeQuality;fill-rule:evenodd;clip-rule:evenodd"><path style="opacity:1" d="M-.5-.5h166v132c-7.433 39.769-30.767 64.769-70 75h-26c-39.629-10.297-62.962-35.63-70-76V-.5z"/><path style="opacity:1" fill="#cb0000" d="M3.5 3.5h78v27h-51a4141.1 4141.1 0 0 0 .5 91c1.44 18.722 9.94 33.222 25.5 43.5 7.843 4.21 16.176 6.377 25 6.5v31c-34.58-1.392-58.747-18.059-72.5-50a92.09 92.09 0 0 1-5-18c-.5-43.665-.667-87.332-.5-131z"/><path style="opacity:1" fill="#fe9900" d="M83.5 3.5h78c.167 44.001 0 88.001-.5 132-7.812 34.814-28.979 56.981-63.5 66.5a98.433 98.433 0 0 1-14 .5v-31c28.842-2.673 45.675-18.339 50.5-47 .5-31.332.667-62.665.5-94h-51v-27z"/><path style="opacity:1" fill="#fefffe" d="M32.5 32.5h49v137c-23.329-1.151-38.829-12.817-46.5-35l-2-10c-.5-30.665-.667-61.331-.5-92z"/><path style="opacity:1" d="M39.5 38.5c10.226 5.715 17.726 14.048 22.5 25a166.434 166.434 0 0 1 9 35c.5 17.664.667 35.33.5 53h-11v-22a84.9 84.9 0 0 1-13-.5c-1.41-.368-2.41-1.201-3-2.5a25.03 25.03 0 0 0 2.5-10 207.372 207.372 0 0 0-1-57 153.453 153.453 0 0 0-6.5-21z"/><path style="opacity:1" fill="#fefffe" d="M123.5 38.5c.876-.13 1.543.203 2 1-6.306 16.188-9.306 33.022-9 50.5.154 8.188.654 16.355 1.5 24.5a37.852 37.852 0 0 0 2.5 12c-.59 1.299-1.59 2.132-3 2.5a98.432 98.432 0 0 1-14 .5v22c-3.277.284-6.443-.049-9.5-1-.667-16-.667-32 0-48 1.506-16.508 5.839-32.174 13-47 4.723-6.555 10.223-12.221 16.5-17zM-.5 130.5c7.038 40.37 30.371 65.703 70 76h-70v-76zM165.5 131.5v75h-70c39.233-10.231 62.567-35.231 70-75z"/></svg>
